X:1
T:Title
%%score ( 1 2 ) { 3 | 4 }
L:1/8
M:4/4
K:D
V:1 treble nm="Grand Piano, Staff 1"
V:2 treble 
V:3 bass nm="Choir Pad, Epiphany (Thrupp), 11.10"
V:4 bass 
V:1
 [DF]4 [DE]2 D2 | [EA]4 [EB]2 [Ec]2 | [Dd]4 [Dc]2 [DB]2 | A2 G2 [DF]4 | [CE]4 D2 D2 | %5
w: By~F.~J.~Thrupp~(1827\-1867) * *|||||
 [CG]4 [DF]2 [DF]2 | [DB]4 [EG]3 [B,F] | [CE]8 | [DA]4 [Fd]2 [Fd]2 | [Ec]2 [CA]2 [EG]2 [EG]2 | %10
w: |||||
 [DF]4 [EB]2 [EB]2 | [EA]4 [Ec]4 | [Dd]4 [Dd]2 [Dd]2 | [Ed]4 [Ec]2 [EB]2 | [FA]4 [CE]2 [CF]2 | %15
w: |||||
 D8 |] %16
w: |
V:2
 x8 | x8 | x8 | E4 z4 | x8 | x8 | x8 | x8 | x8 | x8 | x8 | x8 | x8 | x8 | x8 | x8 |] %16
V:3
 A,4 G,2 F,2 | A,4 A,2 A,2 | F,4 F,2 F,2 | A,4 A,4 | A,4 A,2 A,2 | A,4 A,2 A,2 | G,4 G,2 G,2 | %7
 A,8 | A,4 A,2 A,2 | E4 C2 C2 | D4 D2 D2 | C4[K:bass] A,2 G,2 | A,2 F,2 G,2 A,2 | B,4 C2 D2 | %14
 D4 G,2 G,2 | F,8 |] %16
V:4
 D,4 D,2 D,2 | C,4 C,2 C,2 | B,,4 B,,2 B,,2 | C,4 D,4 | G,4 F,2 F,2 | E,4 D,2 D,2 | z4 E,2 E,2 | %7
 A,,8 | F,4 D,2 D,2 | A,,4 A,2 A,2 | B,4 ^G,2 G,2 | A,,4 z4 | F,2 D,2 E,2 F,2 | G,4 G,,2 G,,2 | %14
 A,,4 A,,2 A,,2 | D,8 |] %16

